X: 1261
T: Koklasam Saçlarını
C: Artaki Candan
O: Turkey
F: http://compmusic.upf.edu/node/140
N: nihavent--sarki--aksak--koklasam_saclarini--artaki_candan
N: makam= nihavent
N: form= sarki
N: usul= aksak = 9/8
M: 9/8
L: 1/16
K: C _B _e  
Q: 1/4=132
%%MIDI tuningsystem comma53
DG2A B2c2 d2e2 ^f2g2 a2 | ^fg abag gffe edd6  | 
w:  ARANAĞME  |   | 
g3^f e2g2 f3e d4 =f2 | e3dc4_1/4Bc dBc6  | \
w:   |   | 
BABc dcd_1/4e fef_a gf_ed cB | 
w:   | 
AB cedc BAAG G^FG4z2  | DG2A B2c2 d2e2 ^f2g2 a2 | 
w:   |  ARANAĞME  | 
^fg abag gffe edd6  | g3^f e2g2 f3e d4 =f2 | 
w:   |   | 
e3dc4_1/4Bc dBc6  | BABc dcd_1/4e fef_a gf_ed cB | 
w:   |   | 
AB cedc BAAG G^FG4z2  | G4 G2G2 d8-d2 | \
w:   |  *  Kok la sam   | 
d4g2 g2d4de dcBc  | 
w:  saç la rı nı  SAZ  | 
d4 c2c2 c4 dcBA B2 | c3Bdc BAG4de dcBA  | 
w:  *  bu  ge ce  tâ   |  fec *  re  *  ka *  dar   SAZ  | 
G4 G2G2 d8-d2 | d4g2 g2d4de dcBc  | d4 c2c2 c4 dcBA B2 | 
w:  *  Kok la sam   |  saç la rı nı  SAZ  |  *  bu  ge ce  tâ   | 
c3dd2 d2d4de dcBc  | d4 d2d2 d4 b4 ba | \
w:  fec *  re  ka dar   SAZ  |  *  A cı  duy sam   | 
a3gg2 gff4{a}gf ede2  | 
w:  *  *  gö zü *  nün   | 
e4 e2ed e2d2 gfed (3c_1/4Bc | d3cf2 edd4de dcBc  | 
w:  ren gi ne  *  dal *  sam   |  *  *  da  se *  nin   SAZ  | 
d4 d2d2 d4 g4 gd | d2 f2f2 f2f4{a}gf ede2  | \
w:  *  A cı  duy sam   |  *  *  gö zü nün   | 
e3d d2dc c4 c_7/8dcd cB | 
w:  ren *  gi ne  *  dal sam   | 
B2 ABdc BAG4ab agg^f  | g4 g2g2 g4 abab ag | 
w:  *  *  *  da  *  se *  nin   SAZ  |  *  Ka na tır   | 
g4a2 _1/4b2c'2 baab c'd'c'b  | a3g g2g2 g2_1/4b2 b6 | \
w:  ru hu mu  mâ *  *  zî  |  *  *  de  ka lan  *  ha  | 
c'_1/4b agb2 b2b4d'3c'bc'  | 
w:  *  *  *  *  tı ra lar   SAZ  | 
d'4 d'2d'2 d'4 d'c'_1/4ba g^f | g4a2 _1/4b2c'2 baab c'd'c'_b  | 
w:  *  Ka na tır   |  ru hu mu  mâ *  *  zî  | 
a3g g2g2 g3f a4 fe | db agfe edd4de dcBc  | 
w:  *  *  de  ka lan  *  ha  |  *  *  *  *  tı *  ra *  lar   SAZ  | 
d4 d2d2 b8 ba | a2 agg2 gff4{a}gf ede2  | \
w:  *  Do ya mam   |  öm *  *  rü me  *  ben   | 
e4 e2ed e2d2 gfed (3c_1/4Bc | 
w:  kal bi ni  *  çal *  sam   | 
d3cf2 edd4de dcBc  | d4 d2d2 g8 gd | \
w:  *  *  da  se *  nin   SAZ  |  *  Do ya mam   | 
d3ff2 f2f4{a}gf ede2  | 
w:  öm *  rü me  ben   | 
e2ed d2dc c4 c_7/8dcd cB | B2 ABdc BAG4z6  | 
w:  kal *  *  bi ni  *  çal sam   |  *  *  *  da  *  se *  nin    | 
|


